outputs/icons/action/download_round.svg

<svg xmlns="http://www.w3.org/2000/svg" width="1200" height="1200" fill="none"><g clip-path="url(#a)"><path fill="#000" d="M829.5 450H750V200c0-27.5-22.5-50-50-50H500c-27.5 0-50 22.5-50 50v250h-79.5c-44.5 0-67 54-35.5 85.5L564.5 765c19.5 19.5 51 19.5 70.5 0l229.5-229.5C896 504 874 450 829.5 450M250 950c0 27.5 22.5 50 50 50h600c27.5 0 50-22.5 50-50s-22.5-50-50-50H300c-27.5 0-50 22.5-50 50"/></g><defs><clipPath id="a"><path fill="#fff" d="M0 0h1200v1200H0z"/></clipPath></defs></svg>

<svg width="1200" height="1200" viewBox="0 0 1200 1200" fill="none" xmlns="http://www.w3.org/2000/svg"><g clip-path="url(#clip0_223_1900)"><path d="M829.5 450H750V200C750 172.5 727.5 150 700 150H500C472.5 150 450 172.5 450 200V450H370.5C326 450 303.5 504 335 535.5L564.5 765C584 784.5 615.5 784.5 635 765L864.5 535.5C896 504 874 450 829.5 450ZM250 950C250 977.5 272.5 1000 300 1000H900C927.5 1000 950 977.5 950 950C950 922.5 927.5 900 900 900H300C272.5 900 250 922.5 250 950Z" fill="#1D1E23"/></g><defs><clipPath id="clip0_223_1900"><path width="24" fill="white" d="M0 0H1200V1200H0V0z"/></clipPath></defs></svg>
